!!!COM:	Du Fay, Guillaume
!!!CDT:	~1397/08/05/-1474/11/27
!!!OTL:	Malheureulx cueur que vieulx tu faire
!!!AGN:	Song; Chanson
!!!SCT:	Duf3078
!!!SCA:	Duf3078
!!!voices:	3
**kern	**kern	**kern	**text	**text
*staff2	*staff3	*staff1	*staff1	*staff1
*Ivox	*Ivox	*Ivox	*	*
*I"Contratenor	*I"Tenor	*I"Cantus	*	*
*I'Ct	*I'T	*I'Cn	*	*
*>[A,B]	*>[A,B]	*>[A,B]	*>[A,B]	*>[A,B]
*>A	*>A	*>A	*>A	*>A
*clefGv2	*clefGv2	*clefG2	*	*
*k[]	*k[]	*k[]	*	*
*M3/1	*M3/1	*M3/1	*	*
*met(O)	*met(O)	*met(O)	*	*
=1-	=1-	=1-	=1-	=1-
!!LO:TX:Z=12:t=Virelai
!LO:TX:Y=40:t=Malhereux cuer	!LO:TX:Y=40:t=Malhereux cuer	!	!	!
0.C	0c	1c	1.5. Mal-	4. Com-
.	.	2e/	-heu-	-bien
.	.	2f/	.	.
.	2c\	1g	-reulx	qu'ai-
.	2B\	.	.	.
=2	=2	=2	=2	=2
1r	1A	1cc	cueur,	-es
0E	0G	1.b	.	.
.	.	2g/	.	.
=3	=3	=3	=3	=3
2.A/	2F/	1a	que	vo-
.	2E/	.	.	.
4B\	.	.	.	.
2c\	0C	1g	vieulx	-lu
1G	.	.	.	.
.	.	1e	tu	par
2c\	.	.	.	.
=4	=4	=4	=4	=4
2B\	1D	1d	fai-	fai-
2A/	.	.	.	.
0c	1C	2g/	.	.
.	.	2e/	.	.
.	1C	4f/	.	.
.	.	4e/	.	.
.	.	4d/	.	.
.	.	4c/	.	.
=5	=5	=5	=5	=5
0d	0G	0B	-re?	-re,
1e	2E/	1r	.	.
.	2F/	.	.	.
=6	=6	=6	=6	=6
1d	1G	1b	Vieulx	Tes
2c\	0A	1.cc	tu	plai-
2d\	.	.	.	.
1e	.	.	.	.
.	.	2a/	.	.
=7	=7	=7	=7	=7
1E	1G	1b	tant	-sirs
0F	0c	1.a	.	.
.	.	2g/	a	crai-
=8	=8	=8	=8	=8
1G	1B	0g	u-	-gnant
0D	1A	.	.	.
.	1A	2f/	-ne	luy
.	.	2e/	com-	des-
=9	=9	=9	=9	=9
1d	0G	2.g/	-plai-	-plai-
.	.	4f/	.	.
1B	.	2e/	.	.
.	.	2d/	.	.
2c\	2E/	2g/	.	.
[2d\	2D/	2a/	.	.
=10	=10	=10	=10	=10
2d\]	2G/	2b\	.	.
2c\	2A/	2.cc\	.	.
2d\	2B\	.	.	.
.	.	4b\	.	.
2e\	2c\	4a/	.	.
.	.	4g/	.	.
2.c\	1A	2.f#i/	.	.
4B\	.	4e/	.	.
=11	=11	=11	=11	=11
1d	0G	0.g	-re	-re,
1B	.	.	.	.
1G	1r	.	.	.
=12	=12	=12	=12	=12
2C/	1c	2r	.	.
4E/	.	1g	Que	Ac-
4F/	.	.	.	.
2G/	2B\	.	.	.
2C/	2c\	2e/	ung	.
1BB	1d	1f	seul	-crois-
=13	=13	=13	=13	=13
0C	2c\	0e	jour	-sant
.	2A/	.	.	.
.	2G/	.	.	.
.	1c	.	.	.
1G	.	1d	je	son
.	2B\	.	.	.
=14	=14	=14	=14	=14
1C	1c	1c	n'a-	bon
1E	1G	1B	-ye	bruit
1C	2r	2.e/	re-	et
.	2G/	.	.	.
.	.	4d/	.	.
=15	=15	=15	=15	=15
2c\	2A/	2.f/	.	.
2A/	2F/	.	.	.
.	.	4e/	.	.
2B\	2G/	4d/	.	.
.	.	4c/	.	.
1G	2E/	1c	.	.
.	1D	.	.	.
2F/	.	2B/	.	.
=16	=16	=16	=16	=16
1G	0.C	1c	-pos?	los;
2A/	.	1r	.	.
2G/	.	.	.	.
2.c\	.	1r	.	.
4B\	.	.	.	.
=17	=17	=17	=17	=17
4A/	0.r	1cc	Pen-	Mal
4G/	.	.	.	.
2A/	.	.	.	.
2E/	.	2b\	-ser	t'en
2F/	.	2.a/	ne	est
1D	.	.	.	.
.	.	4g/	.	.
.	.	2f/	.	.
=18	=18	=18	=18	=18
2C/	1c	1e	puis	prins
4E/	.	.	.	.
4F/	.	.	.	.
4G/	2B\	1r	.	.
8F/L	.	.	.	.
8G/J	.	.	.	.
2A/	2.A/	.	.	.
2c\	.	1a	a	pour
.	4G/	.	.	.
2d\	2F/	.	.	.
=19	=19	=19	=19	=19
0e	0E	2.g/	quel	ce
.	.	4a/	.	.
.	.	1b	.	.
1e	1A	1cc	pro-	tes
=20	=20	=20	=20	=20
1E	2.G/	1.b	-pos	los
.	4A/	.	.	.
1G	1B	.	.	.
.	.	2g/	.	.
1C	1c	4a/	.	.
.	.	4g/	.	.
.	.	4f/	.	.
.	.	4e/	.	.
=21	=21	=21	=21	=21
2G/	2B\	2d/	.	.
4A/	1e	2c/	.	.
4B/	.	.	.	.
2c\	.	2cc\	.	.
2G/	2d\	2b\	.	.
1A	1c	2.a/	.	.
.	.	4g/	.	.
=22	=22	=22	=22	=22
1E	1B	1b	.	.
2.e\	0E	1g	.	.
4d\	.	.	.	.
1B	.	1r	.	.
=23	=23	=23	=23	=23
1A	1r	1a	Tu	Que
1c	1e	2g/	me	brief
.	.	1cc	fais	pen-
1G	1d	.	.	.
.	.	2b\	.	.
=24	=24	=24	=24	=24
2A/	2c\	2cc\	tant	-se
2D/	2d\	1a	.	.
1E	1B	.	.	.
.	.	2g/	de	de
2r	2.A/	2a/	pai	te
[2c\	.	2e/	ne-	des-
.	4G/	.	.	.
=25	=25	=25	=25	=25
4c\]	2A/	2.cc\	-trai-	-fai-
4d\	.	.	.	.
1.e	2E/	.	.	.
.	.	4b\	.	.
.	2c\	2a/	.	.
.	2B\	2g/	.	.
2c\	2A/	2f/	.	.
4B/	4G/	2e/	.	.
4G/	4E/	.	.	.
=26	=26	=26	=26	=26
2A/	2F/	2a/	.	.
2B\	2E/	4g/	.	.
.	.	4e/	.	.
2c\	2A/	2f/	.	.
2B\	2G/	2.e/	.	.
4A/	1F	.	.	.
2A/	.	4d/	.	.
.	.	4d/	.	.
4G/	.	4c/	.	.
=27	=27	=27	=27	=27
0.Bl	0.El	0.el	-re.	-re.
!!LO:TX:rj:Z=12:i:t=fine
!!LO:LB:i:g=z
=28||	=28||	=28||	=28||	=28||
*>B	*>B	*>B	*>B	*>B
*clefGv2	*clefGv2	*clefG2	*	*
*k[]	*k[]	*k[]	*	*
*M2/1	*M2/1	*M2/1	*	*
*met(C|)	*met(C|)	*met(C|)	*	*
!LO:TX:Y=32:t=Nous n'avons	!LO:TX:Y=32:t=Ta leault&eacute;	!	!	!
!LO:TX:Y=52:t=Ta leault&eacute;	!LO:TX:Y=52:t=Nous n'avons	!	!	!
[0E	0e	1.g	2. Nous	3. Ta
.	.	2a/	n'a-	le-
=29	=29	=29	=29	=29
0E]	0e	1b	-vons	-aul-
.	.	1cc	ne	-t&eacute;
=30	=30	=30	=30	=30
0D	0f	1dd	joy-	ne
.	.	2cc\	.	.
.	.	[2a/	.	.
=31	=31	=31	=31	=31
0C	0e	2a/]	.	.
.	.	2g/	.	.
.	.	1g	-e	nous
=32	=32	=32	=32	=32
1D	1d	2f/	ne	Vault
.	.	2.a/	.	.
1A	1c	.	.	.
.	.	4g/	.	.
.	.	2e/	.	.
=33	=33	=33	=33	=33
1D	0d	2f/	.	.
.	.	2g/	.	.
1B-i	.	2f/	.	.
.	.	4e/	.	.
.	.	4d/	.	.
=34	=34	=34	=34	=34
1A	1e	0c	bien,	rien,
[1F	2.A/	.	.	.
.	4B\	.	.	.
=35	=35	=35	=35	=35
2F/]	2A/	0r	.	.
2A/	4G/	.	.	.
.	4F/	.	.	.
2G/	1E	.	.	.
2F/	.	.	.	.
=36	=36	=36	=36	=36
0A	0D	1d	Ne	Et
.	.	1f	toy	qui
=37	=37	=37	=37	=37
1A	1r	1e	ne	pis
[1D	1d	[1d	moy	est,
=38	=38	=38	=38	=38
1D]	1f	1d]	.	.
1C	1e	1g	tu	seur
=39	=39	=39	=39	=39
1r	[0d	2a/	le	je
.	.	2b\	.	.
1D	.	2a/	sces	me
.	.	[2dd\	.	.
=40	=40	=40	=40	=40
1G	1d]	2dd\]	.	.
.	.	2cc\	.	.
1A	1c	[1a	.	.
=41	=41	=41	=41	=41
0E	0B	1a]	.	.
.	.	2g#i/	.	.
.	.	2f#i/	.	.
=42	=42	=42	=42	=42
0e	[0A	0a	bien,	tien
=43	=43	=43	=43	=43
0c	0A]	1r	.	.
.	.	[1e	Tous	Qu'il
=44	=44	=44	=44	=44
0B	0E	2e/]	.	.
.	.	2f/	.	.
.	.	1g	jours	n'en
=45	=45	=45	=45	=45
1A	1F	1a	lan-	chaut
2B\	1E	1g	-guis-	a
2c\	.	.	.	.
=46	=46	=46	=46	=46
2d\	0D	1.f	-sons	no-
2A/	.	.	.	.
1B	.	.	.	.
.	.	2e/	.	.
=47	=47	=47	=47	=47
1c	1C	1e	en	-stre
2C/	1E	1c	des-	mais-
2G/	.	.	.	.
=48	=48	=48	=48	=48
2A/	2F/	2d/	-tres-	-tres-
1B	1G	1e	.	.
2c\	2A/	2f/	.	.
=49	=49	=49	=49	=49
2B\	2G/	2e/	.	.
4A/	4F/	4d/	.	.
4G/	4E/	4c/	.	.
2.F/	1D	1B	.	.
4E/	.	.	.	.
=50	=50	=50	=50	=50
2.G/	1C	2c/	.	.
.	.	1e	.	.
4A/	.	.	.	.
2B\	2G/	.	.	.
2c\	2A/	2f/	.	.
=51	=51	=51	=51	=51
2C/	2G/	1g	.	.
2E/	1c	.	.	.
2F/	.	2a/	.	.
2G/	2B\	2g/	.	.
=52	=52	=52	=52	=52
[0C	1.c	0eN	-se;	-se.
.	2d\	.	.	.
=53	=53	=53	=53	=53
1CN]	1eN	1r	.	.
1F	1A	1a	.	.
=54	=54	=54	=54	=54
1E	1B	2g/	.	.
.	.	2f/	.	.
1r	1c	[1a	.	.
=55	=55	=55	=55	=55
1.c	1.A	2a/]	.	.
.	.	2g/	.	.
.	.	2f/	.	.
2B\	2G/	2e/	.	.
=56	=56	=56	=56	=56
1c	1A	1e	.	.
2A/	1F	1a	.	.
2d\	.	.	.	.
=57	=57	=57	=57	=57
2e\	1E	1g	.	.
2c\	.	.	.	.
1d	1D	[1f	.	.
=58	=58	=58	=58	=58
2.B\	0G	2f/]	.	.
.	.	2e/	.	.
4A/	.	.	.	.
2B\	.	[1e	.	.
2c\	.	.	.	.
=59	=59	=59	=59	=59
1.A	0F	2e/]	.	.
.	.	2d/	.	.
.	.	2d/	.	.
2G/	.	2c/	.	.
=60	=60	=60	=60	=60
0Bl	0El	0el	.	.
=||	=||	=||	=||	=||
*-	*-	*-	*-	*-
!!!RDF**kern: l=long note in original notation
!!!RDF**kern: i=editorial accidental
!!!RDF**kern: N=signum congruentiae
!!!ENC:	Jesse Rodin 3/28/2016
!!!END:	2016/03/28/
!!!EED:	Jesse Rodin
!!!EEV:	2016/03/30/
!!!ONB:	Translated from MusicXML and edited on 2016/03/30/ by Craig Sapp
!!muse2ps: C^@{COM}^i2I150v95,95,150Q8c99
!!hum2mid: --met 252 --no-met2
